img/icons/marker.svg

<svg width="9" height="12" viewBox="0 0 9 12" fill="none" xmlns="http://www.w3.org/2000/svg">
  <path d="M4.49981 0C2.01874 0 0 1.98191 0 4.41796C0 5.05338 0.132472 5.66006 0.39354 6.2213C1.51862 8.63833 3.67571 11.1902 4.31017 11.9146C4.35771 11.9688 4.42701 12 4.49994 12C4.57287 12 4.64217 11.9688 4.6897 11.9146C5.32392 11.1903 7.48101 8.63857 8.60646 6.2213C8.86765 5.66006 9 5.05338 9 4.41796C8.99975 1.98191 6.98101 0 4.49981 0ZM4.49981 6.71267C3.21099 6.71267 2.16234 5.68315 2.16234 4.41784C2.16234 3.15241 3.21099 2.12289 4.49981 2.12289C5.78864 2.12289 6.83728 3.15241 6.83728 4.41784C6.83741 5.68315 5.78876 6.71267 4.49981 6.71267Z" fill="white"/>
</svg>

<svg width="9" height="12" fill="none" xmlns="http://www.w3.org/2000/svg"><path d="M4.5 0C2.019 0 0 1.982 0 4.418c0 .635.132 1.242.394 1.803 1.125 2.417 3.282 4.97 3.916 5.694a.252.252 0 00.38 0c.634-.725 2.791-3.276 3.916-5.694A4.241 4.241 0 009 4.418C9 1.982 6.981 0 4.5 0zm0 6.713c-1.289 0-2.338-1.03-2.338-2.295 0-1.266 1.049-2.295 2.338-2.295 1.289 0 2.337 1.03 2.337 2.295S5.79 6.713 4.5 6.713z" fill="#fff"/></svg>
